X:90
T:90 Brunswick Waltz
C:Shoosmith MS
I:abc2nwc
M:3/8
L:1/16
K:G
GA|B2B2c2|d4ge|d2d2 ec|B2B2 GA|B2B2c2|d4g2|a2agab|g4GA|
B2B2c2|d4ge|d2d2 ec|B2B2 GA|B2B2c2|d4g2|a2agab|g4||
d2|c'2c'2a2|b2b2g2|f2f2g2|a2a2d2|c'2c'2a2|b2b2g2|a2agab|g4d2|
c'2c'2a2|b2b2g2|f2f2g2|a2a2d2|c'2c'2a2|b2b2g2|a2agab|g4||
Bc|d2d2e2|d2d2B2|c2A2B2|c2B2c2|d2d2e2|d2d2g2|a2agab|g4Bc|
d2d2e2|d2d2B2|c2A2B2|c2B2c2|d2d2e2|d2d2g2|a2agab|g4|]

